svg/u1f935_1f3fc_200d_2640.svg

<svg viewBox="0 0 128 128" xmlns="http://www.w3.org/2000/svg">
  <g id="hairGroup_1_">
    <path id="hair_10_" d="M64.57,4.12c-41.01,0-40.68,37.92-40.68,38.52c0,24.56,1.88,59.25,11.71,72.9 c3.9,5.41,11.43,5.71,11.43,5.71L64,121.23l16.97,0.03c0,0,7.54-0.3,11.43-5.71c9.83-13.65,11.71-48.34,11.71-72.9 C104.1,42.04,105.58,4.12,64.57,4.12z" fill="#AB872F"/>
    <radialGradient id="hairHighlights_2_" cx="64.0002" cy="68.3091" gradientTransform="matrix(1 0 0 -1.1901 0 140.9834)" gradientUnits="userSpaceOnUse" r="47.5315">
      <stop offset="0.7936" stop-color="#BFA055" stop-opacity="0"/>
      <stop offset="1" stop-color="#BFA055"/>
    </radialGradient>
    <path id="hairHighlights_1_" d="M64.57,4.12c-41.01,0-40.68,37.92-40.68,38.52 c0,24.56,1.88,59.25,11.71,72.9c3.9,5.41,11.43,5.71,11.43,5.71L64,121.23l16.97,0.03c0,0,7.54-0.3,11.43-5.71 c9.83-13.65,11.71-48.34,11.71-72.9C104.1,42.04,105.58,4.12,64.57,4.12z" fill="url(#hairHighlights_2_)"/>
  </g>
  <g id="XMLID_1_">
    <linearGradient id="SVGID_1_" gradientTransform="matrix(1 0 0 -1 0 128)" gradientUnits="userSpaceOnUse" x1="64" x2="64" y1="32.1553" y2="-2.3633">
      <stop offset="3.200000e-03" stop-color="#616161"/>
      <stop offset="0.2772" stop-color="#545454"/>
      <stop offset="0.7831" stop-color="#323232"/>
      <stop offset="1" stop-color="#212121"/>
    </linearGradient>
    <path d="M64.14,96c-0.05,0-0.09,0-0.14,0c-25.65,0.03-52,7.1-52,24.99V124h1.5H15h98h1.5h1.5v-3.01 C116,104.12,89.9,96,64.14,96z" fill="url(#SVGID_1_)"/>
  </g>
  <g id="neck_1_">
    <path d="M64,90.08h-9.08v9.98c0,4.51,3.7,8.17,8.26,8.17h1.65c4.56,0,8.26-3.66,8.26-8.17v-9.98L64,90.08z" fill="#C48E6A"/>
  </g>
  <g id="head">
    <path d="M64,16.04L64,16.04L64,16.04c-17.2,0-33.13,12.79-33.13,39.91c0,21.78,13.49,34.67,25.23,38.83 c2.8,0.99,5.5,1.49,7.9,1.49c2.38,0,5.07-0.49,7.85-1.47c11.76-4.14,25.28-17.03,25.28-38.84C97.13,28.83,81.2,16.04,64,16.04z" fill="#E0BB95"/>
  </g>
  <g id="bowtie_1_">
    <polygon fill="#E0E0E0" points="52.66,106 56.51,124 64.22,124 64.66,124 71.9,124 75.34,106 "/>
    <path d="M53.75,114.54L64.01,106c0,0-2.94-0.06-6.11-4.19c-1.86-2.42-3.12-6.03-3.12-6.03l-3.14,0.79 L53.75,114.54z" fill="#FFFFFF"/>
    <path d="M74.27,114.54L64,106c0,0,2.94-0.06,6.11-4.19c1.86-2.42,3.12-6.03,3.12-6.03l3.14,0.79 L74.27,114.54z" fill="#FFFFFF"/>
    <g>
      <path d="M51.72,96.57c-0.03,0-0.07,0.01-0.1,0.01l0-0.01c-0.11,0.02-0.22,0.03-0.33,0.05 c-3.52,0.35-6.96,0.84-10.26,1.5l-3.98,6.36l7.12,4.36l-4.75,6.11l9.3,9.05h2.87h4.07h2.04h0.01L51.72,96.57z" fill="#9E9E9E"/>
      <path d="M90.96,104.48l-3.87-6.18c-3.47-0.74-7.1-1.3-10.82-1.68L70.31,124h0h2.05h4.07h2.87l9.3-9.05 l-4.75-6.11L90.96,104.48z" fill="#9E9E9E"/>
    </g>
    <g>
      <path d="M64.77,115.14h-1.4c-1.53,0-2.85-1.05-3.21-2.54l-0.53-2.25c-0.49-2.07,1.08-4.06,3.21-4.06h2.45 c2.12,0,3.68,1.97,3.21,4.03l-0.51,2.25C67.64,114.08,66.3,115.14,64.77,115.14z" fill="#212121"/>
      <path d="M48.79,117.09v-12.07c0-1.5,1.63-2.45,2.95-1.71l10.69,5.94c1.34,0.74,1.35,2.65,0.02,3.42 l-10.69,6.13C50.44,119.54,48.79,118.6,48.79,117.09z" fill="#212121"/>
      <path d="M78.79,117.09v-12.07c0-1.5-1.63-2.45-2.95-1.71l-10.69,5.94c-1.34,0.74-1.35,2.65-0.02,3.42 l10.69,6.13C77.14,119.54,78.79,118.6,78.79,117.09z" fill="#212121"/>
    </g>
    <circle cx="63.75" cy="120" fill="#212121" r="2"/>
  </g>
  <g id="eyebrows_2_">
    <path d="M54.8,49.82c-0.93-1.23-3.07-3.01-7.23-3.01s-6.31,1.79-7.23,3.01c-0.41,0.54-0.31,1.17-0.02,1.55 c0.26,0.35,1.04,0.68,1.9,0.39s2.54-1.16,5.35-1.18c2.81,0.02,4.49,0.89,5.35,1.18c0.86,0.29,1.64-0.03,1.9-0.39 C55.1,50.99,55.21,50.36,54.8,49.82z" fill="#AB872F"/>
    <path d="M87.67,49.82c-0.93-1.23-3.07-3.01-7.23-3.01c-4.16,0-6.31,1.79-7.23,3.01 c-0.41,0.54-0.31,1.17-0.02,1.55c0.26,0.35,1.04,0.68,1.9,0.39s2.54-1.16,5.35-1.18c2.81,0.02,4.49,0.89,5.35,1.18 c0.86,0.29,1.64-0.03,1.9-0.39C87.97,50.99,88.08,50.36,87.67,49.82z" fill="#AB872F"/>
  </g>
  <g id="eyes_2_">
    <ellipse cx="47.56" cy="58.81" fill="#5D4037" rx="4.93" ry="5.1"/>
    <ellipse cx="80.44" cy="58.81" fill="#5D4037" rx="4.93" ry="5.1"/>
  </g>
  <path id="mouth_2_" d="M72.42,76.14c-3.18,1.89-13.63,1.89-16.81,0c-1.83-1.09-3.7,0.58-2.94,2.24 c0.75,1.63,6.44,5.42,11.37,5.42s10.55-3.79,11.3-5.42C76.09,76.72,74.25,75.05,72.42,76.14z" fill="#6D4C41"/>
  <path id="nose_2_" d="M67.86,68.06c-0.11-0.04-0.21-0.07-0.32-0.08h-7.08c-0.11,0.01-0.22,0.04-0.32,0.08 c-0.64,0.26-0.99,0.92-0.69,1.63c0.3,0.71,1.71,2.69,4.55,2.69s4.25-1.99,4.55-2.69C68.85,68.98,68.5,68.32,67.86,68.06z" fill="#C48E6A"/>
  <g id="hairGroup">
    <path id="hair_5_" d="M64.57,4.12c-41.01,0-40.68,37.92-40.68,38.52c0,7.76,0.19,16.53,0.75,25.32l6.72-0.02 c-0.06-2.92,1.99-20.97,8.08-22.34c22.36-5.03,35.01-16.89,35.01-16.89c3.29,7.18,13.58,14.19,17.27,16.86 c3.03,2.19,3.96,18.55,3.9,22.38h7.71c0-0.05,0.02-0.1,0.02-0.16c0.56-8.75,0.74-17.46,0.74-25.17 C104.1,42.04,105.58,4.12,64.57,4.12z" fill="#AB872F"/>
    <radialGradient id="hairHighlights_3_" cx="64.3333" cy="64.2846" gradientTransform="matrix(1 0 0 -1.2135 0 141.7279)" gradientUnits="userSpaceOnUse" r="49.788">
      <stop offset="0.7945" stop-color="#BFA055" stop-opacity="0"/>
      <stop offset="1" stop-color="#BFA055"/>
    </radialGradient>
    <path id="hairHighlights" d="M64.57,4.12c-41.01,0-40.68,37.92-40.68,38.52 c0,7.76,0.19,16.53,0.75,25.32l6.72-0.02c-0.06-2.92,1.99-20.97,8.08-22.34c22.36-5.03,35.01-16.89,35.01-16.89 c3.29,7.18,13.58,14.19,17.27,16.86c3.03,2.19,3.96,18.55,3.9,22.38h7.71c0-0.05,0.02-0.1,0.02-0.16 c0.56-8.75,0.74-17.46,0.74-25.17C104.1,42.04,105.58,4.12,64.57,4.12z" fill="url(#hairHighlights_3_)"/>
  </g>
</svg>

<svg viewBox="0 0 128 128" xmlns="http://www.w3.org/2000/svg">
  <defs>
    <linearGradient id="SVGID_1_" gradientTransform="matrix(1 0 0 -1 0 0)" gradientUnits="userSpaceOnUse" x1="64" x2="64" y1="-95.8447" y2="-130.3633">
      <stop offset="3.200000e-03" stop-color="#616161"/>
      <stop offset="0.2772" stop-color="#545454"/>
      <stop offset="0.7831" stop-color="#323232"/>
      <stop offset="1" stop-color="#212121"/>
    </linearGradient>
    <radialGradient id="hairHighlights_2_" cx="64.0002" cy="-50.15439" gradientTransform="matrix(1 0 0 -1.1901 0 0)" gradientUnits="userSpaceOnUse" r="47.5315">
      <stop offset="0.7936" stop-color="#BFA055" stop-opacity="0"/>
      <stop offset="1" stop-color="#BFA055"/>
    </radialGradient>
    <radialGradient id="hairHighlights_3_" cx="64.3333" cy="-52.508066" gradientTransform="matrix(1 0 0 -1.2135 0 0)" gradientUnits="userSpaceOnUse" r="49.788">
      <stop offset="0.7945" stop-color="#BFA055" stop-opacity="0"/>
      <stop offset="1" stop-color="#BFA055"/>
    </radialGradient>
  </defs>
  <path id="hair_10_" d="M64.57,4.12 C23.56,4.12 23.89,42.04 23.89,42.64 C23.89,67.2 25.77,101.89 35.6,115.54 C39.5,120.95 47.03,121.25 47.03,121.25 L64,121.23 L80.97,121.26 C80.97,121.26 88.51,120.96 92.4,115.55 C102.23,101.9 104.11,67.21 104.11,42.65 C104.1,42.04 105.58,4.12 64.57,4.12 Z" fill="#AB872F"/>
  <path id="hairHighlights_1_" d="M64.57,4.12 C23.56,4.12 23.89,42.04 23.89,42.64 C23.89,67.2 25.77,101.89 35.6,115.54 C39.5,120.95 47.03,121.25 47.03,121.25 L64,121.23 L80.97,121.26 C80.97,121.26 88.51,120.96 92.4,115.55 C102.23,101.9 104.11,67.21 104.11,42.65 C104.1,42.04 105.58,4.12 64.57,4.12 Z" fill="url(#hairHighlights_2_)"/>
  <path d="M64.14,96 C64.09,96 64.05,96 64,96 C38.35,96.03 12,103.1 12,120.99 L12,124 L13.5,124 L15,124 L113,124 L114.5,124 L116,124 L116,120.99 C116,104.12 89.9,96 64.14,96 Z" fill="url(#SVGID_1_)"/>
  <path d="M64,90.08 L54.92,90.08 L54.92,100.06 C54.92,104.57 58.62,108.23 63.18,108.23 L64.83,108.23 C69.39,108.23 73.09,104.57 73.09,100.06 L73.09,90.08 L64,90.08 Z" fill="#C48E6A"/>
  <path d="M64,16.04 L64,16.04 L64,16.04 C46.8,16.04 30.87,28.83 30.87,55.95 C30.87,77.73 44.36,90.62 56.1,94.78 C58.9,95.77 61.6,96.27 64,96.27 C66.38,96.27 69.07,95.78 71.85,94.8 C83.61,90.66 97.13,77.77 97.13,55.96 C97.13,28.83 81.2,16.04 64,16.04 Z" fill="#E0BB95"/>
  <path d="M52.66,106 L56.51,124 L64.22,124 L64.66,124 L71.9,124 L75.34,106 Z" fill="#E0E0E0"/>
  <path d="M53.75,114.54 L64.01,106 C64.01,106 61.07,105.94 57.9,101.81 C56.04,99.39 54.78,95.78 54.78,95.78 L51.64,96.57 L53.75,114.54 Z" fill="#FFFFFF"/>
  <path d="M74.27,114.54 L64,106 C64,106 66.94,105.94 70.11,101.81 C71.97,99.39 73.23,95.78 73.23,95.78 L76.37,96.57 L74.27,114.54 Z" fill="#FFFFFF"/>
  <path d="M51.72,96.57 C51.69,96.57 51.65,96.58 51.62,96.58 L51.62,96.57 C51.51,96.59 51.4,96.6 51.29,96.62 C47.77,96.97 44.33,97.46 41.03,98.12 L37.05,104.48 L44.17,108.84 L39.42,114.95 L48.72,124 L51.59,124 L55.66,124 L57.7,124 L57.71,124 L51.72,96.57 Z" fill="#9E9E9E"/>
  <path d="M90.96,104.48 L87.09,98.3 C83.62,97.56 79.99,97 76.27,96.62 L70.31,124 L70.31,124 L72.36,124 L76.43,124 L79.3,124 L88.6,114.95 L83.85,108.84 L90.96,104.48 Z" fill="#9E9E9E"/>
  <path d="M64.77,115.14 L63.37,115.14 C61.84,115.14 60.52,114.09 60.16,112.6 L59.63,110.35 C59.14,108.28 60.71,106.29 62.84,106.29 L65.29,106.29 C67.41,106.29 68.97,108.26 68.5,110.32 L67.99,112.57 C67.64,114.08 66.3,115.14 64.77,115.14 Z" fill="#212121"/>
  <path d="M48.79,117.09 L48.79,105.02 C48.79,103.52 50.42,102.57 51.74,103.31 L62.43,109.25 C63.77,109.99 63.78,111.9 62.45,112.67 L51.76,118.8 C50.44,119.54 48.79,118.6 48.79,117.09 Z" fill="#212121"/>
  <path d="M78.79,117.09 L78.79,105.02 C78.79,103.52 77.16,102.57 75.84,103.31 L65.15,109.25 C63.81,109.99 63.8,111.9 65.13,112.67 L75.82,118.8 C77.14,119.54 78.79,118.6 78.79,117.09 Z" fill="#212121"/>
  <path d="M65.75,120 A2 2 0 1 1 61.75,120 A2 2 0 1 1 65.75,120 Z" fill="#212121"/>
  <path d="M54.8,49.82 C53.87,48.59 51.73,46.81 47.57,46.81 C43.41,46.81 41.26,48.6 40.34,49.82 C39.93,50.36 40.03,50.99 40.32,51.37 C40.58,51.72 41.36,52.05 42.22,51.76 C43.08,51.47 44.76,50.6 47.57,50.58 C50.38,50.6 52.06,51.47 52.92,51.76 C53.78,52.05 54.56,51.73 54.82,51.37 C55.1,50.99 55.21,50.36 54.8,49.82 Z" fill="#AB872F"/>
  <path d="M87.67,49.82 C86.74,48.59 84.6,46.81 80.44,46.81 C76.28,46.81 74.13,48.6 73.21,49.82 C72.8,50.36 72.9,50.99 73.19,51.37 C73.45,51.72 74.23,52.05 75.09,51.76 C75.95,51.47 77.63,50.6 80.44,50.58 C83.25,50.6 84.93,51.47 85.79,51.76 C86.65,52.05 87.43,51.73 87.69,51.37 C87.97,50.99 88.08,50.36 87.67,49.82 Z" fill="#AB872F"/>
  <path d="M52.49,58.81 A4.93 5.1 0 1 1 42.63,58.81 A4.93 5.1 0 1 1 52.49,58.81 Z" fill="#5D4037"/>
  <path d="M85.37,58.81 A4.93 5.1 0 1 1 75.51,58.81 A4.93 5.1 0 1 1 85.37,58.81 Z" fill="#5D4037"/>
  <path id="mouth_2_" d="M72.42,76.14 C69.24,78.03 58.79,78.03 55.61,76.14 C53.78,75.05 51.91,76.72 52.67,78.38 C53.42,80.01 59.11,83.8 64.04,83.8 C68.97,83.8 74.59,80.01 75.34,78.38 C76.09,76.72 74.25,75.05 72.42,76.14 Z" fill="#6D4C41"/>
  <path id="nose_2_" d="M67.86,68.06 C67.75,68.02 67.65,67.99 67.54,67.98 L60.46,67.98 C60.35,67.99 60.24,68.02 60.14,68.06 C59.5,68.32 59.15,68.98 59.45,69.69 C59.75,70.4 61.16,72.38 64,72.38 C66.84,72.38 68.25,70.39 68.55,69.69 C68.85,68.98 68.5,68.32 67.86,68.06 Z" fill="#C48E6A"/>
  <path id="hair_5_" d="M64.57,4.12 C23.56,4.12 23.89,42.04 23.89,42.64 C23.89,50.4 24.08,59.17 24.64,67.96 L31.36,67.94 C31.3,65.02 33.35,46.97 39.44,45.6 C61.8,40.57 74.45,28.71 74.45,28.71 C77.74,35.89 88.03,42.9 91.72,45.57 C94.75,47.76 95.68,64.12 95.62,67.95 L103.33,67.95 C103.33,67.9 103.35,67.85 103.35,67.79 C103.91,59.04 104.09,50.33 104.09,42.62 C104.1,42.04 105.58,4.12 64.57,4.12 Z" fill="#AB872F"/>
  <path id="hairHighlights" d="M64.57,4.12 C23.56,4.12 23.89,42.04 23.89,42.64 C23.89,50.4 24.08,59.17 24.64,67.96 L31.36,67.94 C31.3,65.02 33.35,46.97 39.44,45.6 C61.8,40.57 74.45,28.71 74.45,28.71 C77.74,35.89 88.03,42.9 91.72,45.57 C94.75,47.76 95.68,64.12 95.62,67.95 L103.33,67.95 C103.33,67.9 103.35,67.85 103.35,67.79 C103.91,59.04 104.09,50.33 104.09,42.62 C104.1,42.04 105.58,4.12 64.57,4.12 Z" fill="url(#hairHighlights_3_)"/>
</svg>
